!!!!SEGMENT: pl-sa--20-a-i-20--003_anonim--polonez.krn
!!!cenid: 18xx:651
!!!COM: Anonim
!!!COM-rism: pe30004985
!!!CDT:
!!!CNT:
!!!OTL: Polonez
!!!PDT:
!!!AGN: Secular; Polonaise
!!!SMS-siglum: PL-SA
!!!SMS-shelfmark: 20/A I 20
!!!NIFC-rismID: 1001065412
!!!URL-scan: http://bc.bdsandomierz.pl/dlibra/publication/1293/edition/1261/content
!!!ONB-nifc: Str. 6
!!!SMS-variant:
!!!SMS-altvar:
**kern	**kern
*part1	*part1
*staff2	*staff1
*I"Piano	*
*I'P-no	*
*clefF4	*clefG2
*k[]	*k[]
*M3/4	*M3/4
=1	=1
*2\right	*2\right
*tremolo	*
!LO:TX:a:t=P:problem:mixed beam	!
!	!LO:TX:a:t=Polon&colon;
8C/L	4.gg 4.ee\
8c\	.
8C/	.
8c\	16ff\LL
.	16ee\JJ
8C/	8eeL 8cc\
8c\J	8eeJ 8cc\
*Xtremolo	*
=2	=2
4C/	(>16ff#X\LL
.	16gg\)
.	(>16ff#\
.	16gg\JJ)
8r	4.ee 4.cc\
8c\L	.
8G\	.
8E\J	8r
=3	=3
!LO:TX:a:t=P:problem:mixed beam	!
8C/L	8.eeeL 8.ccc\
8c\J	.
.	16dddJk 16bb\
8E\L	8.cccL 8.aa\
8F\J	.
.	16bbJk 16gg\
*rep	*
8E\L	8.aaL 8.ff\
8F\J	.
.	16ggJk 16ee\
*Xrep	*
=4	=4
4C/	16ff#X\LL
.	16gg\
.	16ff#\
.	16gg\JJ
8r	4.ee 4.cc\
8C/L	.
8E/	.
8C/J	8r
=5	=5
16BB\LL	16ccc\LL
16G\	16bb\JJ
16D\	4bb\
16G\JJ	.
*rep	*
16BB\LL	.
16G\	.
16D\	16ddd\LL
16G\JJ	16bb\JJ
*Xrep	*
*rep	*
16BB\LL	8.fff\L
16G\	.
16D\	.
16G\JJ	16ddd\Jk
*Xrep	*
=6	=6
16C\LL	16ccc\LL
16G\	16eee\
16E\	16ddd\
16G\JJ	16ccc\JJ
4C/	16bb\LL
.	16aa\
.	16gg\
.	16aa\JJ
4r	16gg\LL
.	16ff\
.	16ee\
.	16ff\JJ
=7	=7
4C/	16ee\LL
.	16gg\
.	16ccc\
.	16eee\JJ
!	!LO:TX:a:t=P:problem:oryginalne łamanie systemu następuje w tym miejscu
!!LO:LB:g=original
8r	16gg\LL
.	16bb\
8G\L	16ddd\
.	16fff\JJ
8E\	16eee\LL
.	16bb\
8G\J	16ccc\
.	16aa\JJ
!!LO:LB:g
=8	=8
4G\	16gg\LL
.	16ee\
.	16ff\
.	16dd\JJ
8r	4dd\
8GG/	.
!	!LO:N:vis=8
4C/	4cc\
=9||;	=9||;
4AA/	(>8.eeL 8.cc\
.	16ffJk 16dd\)
8r	4ee 4cc\
8A\L	.
8E\	8r
8C\J	8eee\
=10	=10
4AA/	8.ddd\L
.	16ccc\Jk
8r	8.bb\L
!LO:TX:a:t=P:problem:mixed beam	!
8A\L	.
.	16aa\Jk
8AA/	8gg#X\L
8A\J	8aa\J
=11	=11
4AA/	8.eeL 8.cc\
.	16ffJk 16dd\
8r	4ee 4cc\
8A\L	.
8E\	8r
8C\J	8ee\
=12	=12
4AA/	8.dd\L
.	16cc\Jk
8r	8.b\L
8C/L	.
.	16a\Jk
8BB/	8g#X\L
8C/J	8a\J
=13	=13
4E\	16g#X/LL
.	16e/
.	16b/
.	16g#/JJ
4G#X\	16ee\LL
.	16b\
.	16gg#X\
.	16ee\JJ
4E\	16bb\LL
.	16gg#\
.	16eee\
.	16bb\JJ
=14	=14
4A\	16ddd\LL
.	16ccc\
.	16bb\
.	16ccc\JJ
4r	16bb\LL
.	16aa\
!	!LO:TX:b:t=DaCapo
.	16ggn\
.	16aa\JJ
4r	16gg\LL
.	16ff\
.	16ee\
.	16ff\JJ
!!LO:LB:g=original
=15||;	=15||;
*k[b-e-a-]	*k[b-e-a-]
*M3/4	*M3/4
!LO:TX:a:t=P:problem:mixed beam	!
!	!LO:TX:b:t=P:problem:w źródle "Trio" zapisane pomiędzy pięciolniami, przed taktem 15
!	!LO:TX:b:t=Trio
8C/L	(>4.gg 4.ee-\
8c\J	.
4.C/	.
.	16aa-\LL
.	16gg\JJ)
.	8ff\L
8r	8ee-\J
=16	=16
8r	(>4.ee-\
8c\	.
4C/	.
.	16ff\LL
.	16ee-\JJ)
4r	8dd\L
.	8cc\J
=17	=17
8r	16bn\LL
.	16dd\J
!	!LO:TX:a:t=t
8G\	8dd\J
!LO:TX:a:t=P:problem:mixed beam	!
*tremolo	*
8GG/L	4.gg 4.ee-\
8G\	.
8GG/	.
8G\J	8ff 8dd\
*Xtremolo	*
=18	=18
4C/	16ff\LL
.	16ee-\
.	16aa-\
.	16gg\JJ
8r	8ggL 8ee-\
8F\	16ffL 16dd\
.	16ee-JJ 16cc\
!LO:TX:a:t=P:problem:mixed beam	!
8G\L	8ee-L 8cc\
8GG/J	8ddJ 8bn\
=19	=19
.	16qqcc/LL
!LO:TX:a:t=P:problem:mixed beam	!
.	16qqee-/JJ
8C/L	4.gg 4.ee-\
8c\J	.
4C/	.
.	16aa-\LL
.	16gg\JJ
4r	8ff\L
.	8ee-\J
=20	=20
8r	4.ee-\
8c\	.
4C/	.
.	16ff\LL
.	16ee-\JJ
4r	8dd\L
.	8cc\J
!!LO:LB:g=original
=21	=21
8r	16bn\LL
.	16dd\J
!	!LO:TX:a:t=t
8G\	8dd\J
!LO:TX:a:t=P:problem:mixed beam	!
*tremolo	*
8GG/L	8.gg\L
8G\	.
.	16aa-\Jk
8GG/	16gg\LL
.	16ff\
8G\J	16ee-\
.	16dd\JJ
*Xtremolo	*
=22	=22
8C\L	16cc\LL
.	16bn\
8G\	16ee-\
.	16dd\JJ
8c\	4dd\
8G\J	.
!	!LO:N:vis=8
4C/	4cc\
=23||;	=23||;
4GG/	8g/L
.	16g/L
!	!LO:TX:b:t=t
.	.
.	16g/JJ
4GG/	8bnL 8g/
.	8ddJ 8b/
4G\	8.ggL 8.ee-\
.	16ffJk 16dd\
=24	=24
4C/	8ee-L 8cc\
.	8ee-J 8ccT\
8r	4.dd 4.bn\
!LO:TX:a:t=P:problem:mixed beam	!
8G\L	.
8GG/	.
8G\J	8r
=25	=25
4GG/	8g/L
.	16g/L
!	!LO:TX:b:t=t
.	.
.	16g/JJ
4GG/	8bnL 8g/
.	8ddJ 8b/
4G\	8.ggL 8.ee-\
.	16ffJk 16dd\
=26	=26
4C/	8ee- 8cc\
.	4gg 4ee-\
8r	.
8F\	16ffLL 16dd\
.	16ee-JJ 16cc\
!LO:TX:a:t=P:problem:mixed beam	!
8G\L	8ee-L 8cc\
!LO:TX:b:t=Trio al Segno	!
8GG/J	8ddJ 8bn\
==	==
*-	*-
!!!system-decoration: {(s1,s2)}
!!!RDF**kern: > = above
!!!RDF**kern: < = below
!!!EED: Antoni Szymański
!!!EST: 2020-10-09
!!!ENC: Marcin Jachim
!!!END: 2020-06-18
